!! 00000] TT[WS
!!!OTL: Mai yanzhi
!!!ARE: Asia, China, Shanxi Lishi
!! Ethnic Group: Han
!! WII, 117 (2)
!!!SCT: J0580
!!!YEM: Copyright 1995, estate of Helmut Schaffrath.
**kern
*ICvox
*Ivox
*M2/4
*k[b-]
*F:
{8f
8f
8f
8f
=1
8dd
8ff
8dd
8cc
=2
8dd
8ff
8cc
8a
=3
8g
8f
8g
8r}
=4
{8ff
8dd
4cc
=5
8c
8d
4f
=6
8g
16g
16a
8f
8d
=7
2c}
==
!!!AGN: Xiaodiao. Qingge, Sichun
!!!ONB: ESAC (Essen Associative Code) Database: CHINA
!!!AMT: simple duple
!!!AIN: vox
!!!EED: Helmut Schaffrath
!!!EEV: 1.0
*-
